T: Shoe The Donkey
M: 3/4
L: 1/8
K: Gmaj
|:GA B2 D2|GA B2 D2|GA B2 c2|B2 A4|FG A2 D2|FG A2 D2|FG A2 c2|F2 G4:|Bc d2 g2|f2 c4|AB c2 e2|d2 B4|GA B2 A2|B2 c4|ce e2 E2|A2 G4:||:GA|B2 D2 GA||:GA BD GB|DG BD GB|DG (3BcB (3cdc|(3BcB A4|FG AD FA|DF AD FA|DF (3ABA (3BcB|(3ABA G4:||:Bc dG Bd|gf c3A|AB cF Ac|ed B3G|GA (3BcB (3ABA|(3BcB c3B|ce (3efe d2|1 F2 G3A:|
